images/ButtonBorder2.svg

<?xml version="1.0" encoding="UTF-8" standalone="no"?>
<!-- Created with Inkscape (http://www.inkscape.org/) -->

<svg
   width="135"
   height="175"
   viewBox="0 0 135 175"
   version="1.1"
   id="svg1"
   xml:space="preserve"
   sodipodi:docname="ButtonBorder2.svg"
   inkscape:version="1.3 (0e150ed6c4, 2023-07-21)"
   xmlns:inkscape="http://www.inkscape.org/namespaces/inkscape"
   xmlns:sodipodi="http://sodipodi.sourceforge.net/DTD/sodipodi-0.dtd"
   xmlns:xlink="http://www.w3.org/1999/xlink"
   xmlns="http://www.w3.org/2000/svg"
   xmlns:svg="http://www.w3.org/2000/svg"
   xmlns:rdf="http://www.w3.org/1999/02/22-rdf-syntax-ns#"
   xmlns:cc="http://creativecommons.org/ns#"
   xmlns:dc="http://purl.org/dc/elements/1.1/"><title
     id="title347">Button Border 2</title><sodipodi:namedview
     id="namedview1"
     pagecolor="#505050"
     bordercolor="#ffffff"
     borderopacity="1"
     inkscape:showpageshadow="0"
     inkscape:pageopacity="0"
     inkscape:pagecheckerboard="1"
     inkscape:deskcolor="#505050"
     inkscape:document-units="px"
     inkscape:zoom="2.8284271"
     inkscape:cx="69.650018"
     inkscape:cy="77.074639"
     inkscape:window-width="1287"
     inkscape:window-height="747"
     inkscape:window-x="-4"
     inkscape:window-y="-4"
     inkscape:window-maximized="1"
     inkscape:current-layer="layer2"
     showgrid="true"
     showguides="true"><inkscape:grid
       id="grid478"
       units="px"
       originx="0"
       originy="0"
       spacingx="0.99999999"
       spacingy="1"
       empcolor="#0099e5"
       empopacity="0.30196078"
       color="#0099e5"
       opacity="0.14901961"
       empspacing="5"
       dotted="false"
       gridanglex="30"
       gridanglez="30"
       visible="true" /></sodipodi:namedview><defs
     id="defs1"><linearGradient
       id="linearGradient343"
       inkscape:collect="always"><stop
         style="stop-color:#040404;stop-opacity:1;"
         offset="0"
         id="stop342" /><stop
         style="stop-color:#040404;stop-opacity:0;"
         offset="1"
         id="stop343" /></linearGradient><linearGradient
       id="linearGradient340"
       inkscape:collect="always"><stop
         style="stop-color:#000000;stop-opacity:1;"
         offset="0"
         id="stop340" /><stop
         style="stop-color:#040404;stop-opacity:1;"
         offset="1"
         id="stop341" /></linearGradient><linearGradient
       id="linearGradient337"
       inkscape:collect="always"><stop
         style="stop-color:#000000;stop-opacity:1;"
         offset="0"
         id="stop337" /><stop
         style="stop-color:#272727;stop-opacity:1;"
         offset="1"
         id="stop338" /></linearGradient><linearGradient
       id="linearGradient335"
       inkscape:collect="always"><stop
         style="stop-color:#404040;stop-opacity:1;"
         offset="0"
         id="stop335" /><stop
         style="stop-color:#333333;stop-opacity:1;"
         offset="1"
         id="stop336" /></linearGradient><linearGradient
       id="linearGradient333"
       inkscape:collect="always"><stop
         style="stop-color:#404040;stop-opacity:1;"
         offset="0"
         id="stop333" /><stop
         style="stop-color:#333333;stop-opacity:1;"
         offset="1"
         id="stop334" /></linearGradient><linearGradient
       id="linearGradient1"
       inkscape:collect="always"><stop
         style="stop-color:#2f2f2f;stop-opacity:1;"
         offset="0"
         id="stop1" /><stop
         style="stop-color:#060606;stop-opacity:1;"
         offset="1"
         id="stop2" /></linearGradient><linearGradient
       inkscape:collect="always"
       xlink:href="#linearGradient1"
       id="linearGradient2"
       x1="67.499496"
       y1="14.999901"
       x2="67.499496"
       y2="160.00009"
       gradientUnits="userSpaceOnUse" /><linearGradient
       inkscape:collect="always"
       xlink:href="#linearGradient333"
       id="linearGradient334"
       x1="64.999504"
       y1="0"
       x2="64.999504"
       y2="15"
       gradientUnits="userSpaceOnUse" /><linearGradient
       inkscape:collect="always"
       xlink:href="#linearGradient335"
       id="linearGradient336"
       x1="-0.00049831799"
       y1="87.5"
       x2="14.999503"
       y2="87.5"
       gradientUnits="userSpaceOnUse" /><linearGradient
       inkscape:collect="always"
       xlink:href="#linearGradient337"
       id="linearGradient338"
       x1="134.9995"
       y1="87.5"
       x2="119.9996"
       y2="87.5"
       gradientUnits="userSpaceOnUse"
       gradientTransform="translate(9.564209e-5)" /><linearGradient
       inkscape:collect="always"
       xlink:href="#linearGradient343"
       id="linearGradient339"
       gradientUnits="userSpaceOnUse"
       x1="134.9995"
       y1="175"
       x2="134.9995"
       y2="2.0710679e-07"
       gradientTransform="translate(1.06e-4)" /><linearGradient
       inkscape:collect="always"
       xlink:href="#linearGradient340"
       id="linearGradient341"
       x1="67.499504"
       y1="175"
       x2="67.499504"
       y2="160"
       gradientUnits="userSpaceOnUse" /><linearGradient
       inkscape:collect="always"
       xlink:href="#linearGradient343"
       id="linearGradient344"
       gradientUnits="userSpaceOnUse"
       gradientTransform="matrix(-0.99999999,0,0,1,134.99899,0)"
       x1="134.9995"
       y1="175"
       x2="134.9995"
       y2="2.0710679e-07" /></defs><g
     inkscape:groupmode="layer"
     id="layer2"
     inkscape:label="Layer 2"
     transform="translate(4.9781799e-4)"><rect
       style="opacity:1;fill:url(#linearGradient2);stroke:#404040;stroke-width:29.9998;stroke-linecap:square;stroke-linejoin:miter;stroke-miterlimit:3.9;stroke-dasharray:none;stroke-opacity:1;paint-order:stroke fill markers"
       id="rect1"
       width="105.00019"
       height="145.0002"
       x="14.999402"
       y="14.999901"
       sodipodi:insensitive="true"
       inkscape:label="BG" /><path
       id="path329"
       style="fill:url(#linearGradient336);fill-opacity:1;stroke:#000000;stroke-width:0;stroke-linecap:square;stroke-linejoin:miter;stroke-miterlimit:4;stroke-dasharray:none;stroke-opacity:1;paint-order:normal"
       d="M -0.00049781799 0 L -0.00049781799 15 L -0.00049781799 160 L -0.00049781799 175 L 14.999502 160 L 14.999502 15 L -0.00049781799 0 z "
       inkscape:label="Left" /><path
       id="path330"
       style="fill:url(#linearGradient338);fill-opacity:1;stroke:#000000;stroke-width:0;stroke-linecap:square;stroke-linejoin:miter;stroke-miterlimit:4;stroke-dasharray:none;stroke-opacity:1;paint-order:normal"
       d="M 134.9996,-3.1075905e-6 V 14.999997 160 175 l -15,-15 V 14.999997 Z"
       inkscape:label="Right" /><path
       id="path332"
       style="fill:url(#linearGradient334);fill-opacity:1;stroke:#000000;stroke-width:0;stroke-linecap:square;stroke-linejoin:miter;stroke-miterlimit:4;stroke-dasharray:none;stroke-opacity:1;paint-order:normal"
       d="M -4.9763598e-4,0 14.999502,15 H 119.9995 l 15,-15 h -15 -104.999998 z"
       inkscape:label="Top" /><path
       id="path333"
       style="fill:url(#linearGradient341);fill-opacity:1;stroke:#000000;stroke-width:0;stroke-linecap:square;stroke-linejoin:miter;stroke-miterlimit:4;stroke-dasharray:none;stroke-opacity:1;paint-order:normal"
       d="M -4.983e-4,175 14.999502,160 H 119.9995 l 15,15 h -15 -104.999998 z"
       inkscape:label="Bottom" /><path
       id="path338"
       style="fill:url(#linearGradient339);fill-opacity:1;stroke:#000000;stroke-width:0;stroke-linecap:square;stroke-linejoin:miter;stroke-miterlimit:4;stroke-dasharray:none;stroke-opacity:1;paint-order:normal"
       d="M 134.9996,-1.3e-6 V 14.999999 160 175 l -15,-15 V 14.999999 Z"
       inkscape:label="Transparent Right" /><path
       id="path344"
       style="fill:url(#linearGradient344);fill-opacity:1;stroke:#000000;stroke-width:0;stroke-linecap:square;stroke-linejoin:miter;stroke-miterlimit:4;stroke-dasharray:none;stroke-opacity:1;paint-order:normal"
       d="M -4.98e-4,2.071068e-7 V 15 160 175 l 15,-15 V 15 Z"
       inkscape:label="Transparent Left" /></g><metadata
     id="metadata347"><rdf:RDF><cc:Work
         rdf:about=""><dc:title>Button Border 2</dc:title></cc:Work></rdf:RDF></metadata></svg>

<?xml version="1.0" encoding="UTF-8"?>
<svg width="135" height="175" version="1.1" viewBox="0 0 135 175" xmlns="http://www.w3.org/2000/svg" xmlns:xlink="http://www.w3.org/1999/xlink"><title>Button Border 2</title><defs><linearGradient id="a"><stop stop-color="#040404" offset="0"/><stop stop-color="#040404" stop-opacity="0" offset="1"/></linearGradient><linearGradient id="h" x1="67.499" x2="67.499" y1="15" y2="160" gradientUnits="userSpaceOnUse"><stop stop-color="#2f2f2f" offset="0"/><stop stop-color="#060606" offset="1"/></linearGradient><linearGradient id="g" x1="65" x2="65" y2="15" gradientUnits="userSpaceOnUse"><stop stop-color="#404040" offset="0"/><stop stop-color="#333" offset="1"/></linearGradient><linearGradient id="f" x1="-.00049832" x2="15" y1="87.5" y2="87.5" gradientUnits="userSpaceOnUse"><stop stop-color="#404040" offset="0"/><stop stop-color="#333" offset="1"/></linearGradient><linearGradient id="e" x1="135" x2="120" y1="87.5" y2="87.5" gradientTransform="translate(9.5642e-5)" gradientUnits="userSpaceOnUse"><stop offset="0"/><stop stop-color="#272727" offset="1"/></linearGradient><linearGradient id="d" x1="135" x2="135" y1="175" y2="2.0711e-7" gradientTransform="translate(1.06e-4)" gradientUnits="userSpaceOnUse" xlink:href="#a"/><linearGradient id="c" x1="67.5" x2="67.5" y1="175" y2="160" gradientUnits="userSpaceOnUse"><stop offset="0"/><stop stop-color="#040404" offset="1"/></linearGradient><linearGradient id="b" x1="135" x2="135" y1="175" y2="2.0711e-7" gradientTransform="matrix(-1 0 0 1 135 0)" gradientUnits="userSpaceOnUse" xlink:href="#a"/></defs><g transform="translate(.00049782)"><rect x="15" y="15" width="105" height="145" fill="url(#h)" /><g><path d="m-4.9782e-4 0v15 145 15l15-15v-145l-15-15z" fill="url(#f)" /><path d="m135-3.1076e-6v175l-15-15v-145z" fill="url(#e)" /><path d="m-4.9764e-4 0 15 15h105l15-15h-120z" fill="url(#g)"/><path d="m-4.983e-4 175 15-15h105l15 15h-120z" fill="url(#c)" /><path d="m135-1.3e-6v175l-15-15v-145z" fill="url(#d)" /><path d="m-4.98e-4 2.0711e-7v175l15-15v-145z" fill="url(#b)"/></g></g></svg>
